X: 306
T: A Peep Behind The Curtain
R: slip jig
M: 9/8
K: Dmajor
|:faf def efg|faf dfd e2A|faf def efg|fdf agf e3:|
|:Ace ecA ecA|Adf fdf fga|Ace ecA ecA|Bgf eda d3:|

